work04/images/cake_bg.svg

<svg fill="none" height="447" viewBox="0 0 401 447" width="401" xmlns="http://www.w3.org/2000/svg" xmlns:xlink="http://www.w3.org/1999/xlink"><clipPath id="a"><path d="m0 0h401v447h-401z"/></clipPath><g clip-path="url(#a)" fill="#e9d6d6" opacity=".03"><path d="m323.149 270.663v-100.867h-.519c-2.79-13.863-16.414-24.617-35.942-32.391-8.369 14.447-23.809 38.481-37.433 44.959-7.716 2.93-15.955 4.231-24.199 3.822-15.76-.4-31.455-2.178-46.905-5.312l-3.309-.713 1.557-2.98c.908-1.749 20.242-39.323 38.342-52.927-11.367-.616-22.758-.616-34.125 0 3.599 5.328 5.529 11.605 5.545 18.031.016 6.427-1.883 12.713-5.455 18.059s-8.656 9.51-14.605 11.962c-5.949 2.453-12.494 3.083-18.802 1.81-6.309-1.273-12.095-4.39-16.624-8.956-4.529-4.567-7.595-10.375-8.809-16.686-1.213-6.312-.519-12.841 1.994-18.757 2.514-5.917 6.733-10.953 12.121-14.468 2.946-7.383 7.186-14.184 12.521-20.0823 13.044-16.0458 30.194-28.2682 49.63-35.3714 17.971-7.3205 28.741-13.6692 26.405-39.7118 0-.7126 0-1.2955 0-1.8786 7.975 5.9393 15.187 12.8364 21.474 20.536 12.787 14.1957 21.583 31.5176 25.497 50.2065 2.248 9.8567 2.402 20.0746.453 29.9946 7.396.972 13.494 2.073 16.738 2.721 2.284-11.917 2.107-24.1736-.518-36.0195-4.458-21.7023-14.625-41.8271-29.455-58.3044-20.63-23.32173-33.021-31.16025-42.753-26.949385-6.487 2.785655-9.277 9.911785-8.304 21.119185 1.427 15.4183-1.557 16.5845-15.894 22.4149-21.924 8.1846-41.287 22.0199-56.119 40.1001-15.959 18.7221-21.474 35.9541-16.413 51.1781-21.9286 7.58-37.5631 18.917-40.6122 33.881h-.4546v100.867c-47.684 17.75-77.851493 45.931-77.851493 78.193 0 32.261 30.297193 60.442 77.851493 78.192 7.5256 2.851 15.5057 5.377 23.8098 7.645 64.78 16.411 132.638 16.411 197.418 0 8.369-2.268 16.349-4.794 23.875-7.645 47.684-17.75 77.851-45.931 77.851-78.192 0-32.262-30.362-59.73-77.981-77.48zm-214.935-80.072c40.264 10.169 81.752 14.682 123.265 13.41 1.103 0 .454 1.296-3.179 1.815-14.477 1.939-29.057 3.021-43.662 3.239-26.569.606-53.005-3.925-77.851-13.346-.541-.289-.968-.753-1.213-1.315-.244-.562-.291-1.19-.133-1.782.157-.592.511-1.113 1.002-1.48.492-.367 1.093-.557 1.706-.541zm-6.488 22.415c14.468 1.62 30.297 6.479 29.778 19.435-1.687 45.348-6.487 53.316-1.687 66.985 1.557 4.276 12.197 16.585 18.75 7.645 12.975-17.945-6.487-56.361.519-70.354 9.018-17.168 35.163-4.146 39.445 2.656s.843 33.298 0 52.797c-.844 19.5-2.531 40.814 16.154 30.125 18.684-10.69-10.186-56.361 3.438-83.764 1.558-3.709 4.027-6.965 7.179-9.468 3.153-2.502 6.888-4.171 10.857-4.849h1.687c5.811-.238 11.509 1.651 16.024 5.312 14.273 10.948 10.9 51.826 9.083 64.782-.636 4.296-.636 8.661 0 12.957 1.103 7.644 4.606 16.52 14.791 11.92 16.998-7.579-4.476-30.772 1.687-80.719 1.687-13.799 17.777-26.626 22.123-30.513l1.103-.842 3.568-1.749c.976-.267 1.976-.44 2.985-.518v142.91c-.843 9.523-8.889 12.957-24.783 18.787-23.883 7.563-48.844 11.174-73.894 10.689-58.389-.648-98.547-14.965-98.742-29.411zm221.423 190.85c-7.798 3.26-15.768 6.093-23.875 8.486-64.564 18.052-132.853 18.052-197.418 0-8.0853-2.393-16.034-5.226-23.8097-8.486-33.3464-14.123-54.4312-33.687-54.4312-55.001 0-21.313 21.0848-40.878 54.4312-55v48.911c.1786 7.672 2.5034 15.142 6.711 21.564 4.2075 6.423 10.1302 11.542 17.0987 14.779 50.474 25.913 147.723 26.885 197.418 0 7.644-3.981 13.969-10.089 18.206-17.586 4.238-7.497 6.207-16.061 5.669-24.652v-43.275c33.281 14.122 54.366 33.687 54.366 55 0 21.314-21.149 41.137-54.366 55.26z"/><path d="m285.326 126.844h-.39-1.167-.39-1.427c-14.986-2.527-46.192-6.478-59.621-.324-14.662 6.996-32.893 38.869-38.926 49.882 7.915-3.498 24.524-10.819 41.132-18.269h.519c7.785-3.433 15.505-6.931 22.382-10.106l2.66-8.745 1.687.518-2.661 8.487 12.976 7.774-.909 1.425-12.975-7.839-19.463 8.746c5.864 1.926 11.516 4.444 16.869 7.514l-.779 1.491c-5.822-3.564-12.172-6.188-18.814-7.774l-41.391 18.333c12.975 2.397 48.397 7.839 62.8.972 14.402-6.867 34.124-40.684 39.639-50.919z"/><path d="m135.916 143.171c-.343-.068-.696-.068-1.038 0-2.076.842-2.66 4.535-1.232 7.903 1.427 3.369 4.476 5.442 6.487 4.6s2.66-4.6 1.232-7.968c-.433-1.165-1.164-2.196-2.12-2.992-.956-.795-2.103-1.327-3.329-1.543z"/><path d="m180.81 140.188s0-.648 0-.971c.032-.54.032-1.081 0-1.62.032-.366.032-.735 0-1.101 0-.454 0-.907 0-1.296l-.389-1.296c-.124-.357-.276-.703-.454-1.036-.145-.464-.318-.918-.52-1.361l-.453-.842c-.199-.473-.438-.928-.714-1.36-.112-.26-.266-.501-.454-.713-.265-.498-.569-.975-.909-1.425v-.453l-1.167-1.49c-2.436-2.893-5.452-5.245-8.853-6.904-3.402-1.659-7.113-2.589-10.896-2.729s-7.553.512-11.068 1.914-6.697 3.524-9.342 6.228c-1.829 1.936-3.379 4.116-4.606 6.479-.419.752-.788 1.531-1.103 2.332l-.779 2.203v.648c0 .647.001 1.23-.453 1.878v1.296c-.036.474-.036.951 0 1.425-.064.906-.064 1.815 0 2.721-.18 3.681.39 7.359 1.676 10.813 1.287 3.453 3.263 6.61 5.808 9.279 2.544 2.668 5.606 4.792 8.998 6.244 3.391 1.451 7.043 2.2 10.733 2.2s7.342-.749 10.734-2.2c3.392-1.452 6.453-3.576 8.998-6.244 2.545-2.669 4.52-5.826 5.807-9.279 1.286-3.454 1.857-7.132 1.677-10.813-2.141-.842-2.206-1.684-2.271-2.527zm-38.925 20.342c-.957.438-1.998.659-3.05.648-2.287-.201-4.467-1.052-6.284-2.453s-3.193-3.292-3.966-5.451c-.888-1.17-1.496-2.527-1.779-3.968-.283-1.44-.233-2.926.146-4.344.378-1.419 1.075-2.732 2.039-3.841.964-1.108 2.168-1.983 3.521-2.557s2.819-.832 4.288-.755c1.468.077 2.899.487 4.184 1.2s2.391 1.709 3.233 2.912c.842 1.204 1.397 2.583 1.625 4.033 1.436 2.419 1.859 5.305 1.179 8.033s-2.409 5.079-4.812 6.543z"/></g></svg>

<svg width="401" height="447" viewBox="0 0 401 447" fill="none" xmlns="http://www.w3.org/2000/svg">
<g opacity="0.03" clip-path="url(#clip0)">
<path d="M323.149 270.663V169.796H322.63C319.84 155.933 306.216 145.179 286.688 137.405C278.319 151.852 262.879 175.886 249.255 182.364C241.539 185.294 233.3 186.595 225.056 186.186C209.296 185.786 193.601 184.008 178.151 180.874L174.842 180.161L176.399 177.181C177.307 175.432 196.641 137.858 214.741 124.254C203.374 123.638 191.983 123.638 180.616 124.254C184.215 129.582 186.145 135.859 186.161 142.285C186.177 148.712 184.278 154.998 180.706 160.344C177.134 165.69 172.05 169.854 166.101 172.306C160.152 174.759 153.607 175.389 147.299 174.116C140.99 172.843 135.204 169.726 130.675 165.16C126.146 160.593 123.08 154.785 121.866 148.474C120.653 142.162 121.347 135.633 123.86 129.717C126.374 123.8 130.593 118.764 135.981 115.249C138.927 107.866 143.167 101.065 148.502 95.1667C161.546 79.1209 178.696 66.8985 198.132 59.7953C216.103 52.4748 226.873 46.1261 224.537 20.0835C224.537 19.3709 224.537 18.788 224.537 18.2049C232.512 24.1442 239.724 31.0413 246.011 38.7409C258.798 52.9366 267.594 70.2585 271.508 88.9474C273.756 98.8041 273.91 109.022 271.961 118.942C279.357 119.914 285.455 121.015 288.699 121.663C290.983 109.746 290.806 97.4894 288.181 85.6435C283.723 63.9412 273.556 43.8164 258.726 27.3391C238.096 4.01737 225.705 -3.82115 215.973 0.389715C209.486 3.17537 206.696 10.3015 207.669 21.5089C209.096 36.9272 206.112 38.0934 191.775 43.9238C169.851 52.1084 150.488 65.9437 135.656 84.0239C119.697 102.746 114.182 119.978 119.243 135.202C97.3144 142.782 81.6799 154.119 78.6308 169.083H78.1762V269.95C30.4922 287.7 0.324707 315.881 0.324707 348.143C0.324707 380.404 30.6219 408.585 78.1762 426.335C85.7018 429.186 93.6819 431.712 101.986 433.98C166.766 450.391 234.624 450.391 299.404 433.98C307.773 431.712 315.753 429.186 323.279 426.335C370.963 408.585 401.13 380.404 401.13 348.143C401.13 315.881 370.768 288.413 323.149 270.663ZM108.214 190.591C148.478 200.76 189.966 205.273 231.479 204.001C232.582 204.001 231.933 205.297 228.3 205.816C213.823 207.755 199.243 208.837 184.638 209.055C158.069 209.661 131.633 205.13 106.787 195.709C106.246 195.42 105.819 194.956 105.574 194.394C105.33 193.832 105.283 193.204 105.441 192.612C105.598 192.02 105.952 191.499 106.443 191.132C106.935 190.765 107.536 190.575 108.149 190.591H108.214ZM101.726 213.006C116.194 214.626 132.023 219.485 131.504 232.441C129.817 277.789 125.017 285.757 129.817 299.426C131.374 303.702 142.014 316.011 148.567 307.071C161.542 289.126 142.08 250.71 149.086 236.717C158.104 219.549 184.249 232.571 188.531 239.373C192.813 246.175 189.374 272.671 188.531 292.17C187.687 311.67 186 332.984 204.685 322.295C223.369 311.605 194.499 265.934 208.123 238.531C209.681 234.822 212.15 231.566 215.302 229.063C218.455 226.561 222.19 224.892 226.159 224.214H227.846C233.657 223.976 239.355 225.865 243.87 229.526C258.143 240.474 254.77 281.352 252.953 294.308C252.317 298.604 252.317 302.969 252.953 307.265C254.056 314.909 257.559 323.785 267.744 319.185C284.742 311.606 263.268 288.413 269.431 238.466C271.118 224.667 287.208 211.84 291.554 207.953L292.657 207.111L296.225 205.362C297.201 205.095 298.201 204.922 299.21 204.844V347.754C298.367 357.277 290.321 360.711 274.427 366.541C250.544 374.104 225.583 377.715 200.533 377.23C142.144 376.582 101.986 362.265 101.791 347.819L101.726 213.006ZM323.149 403.856C315.351 407.116 307.381 409.949 299.274 412.342C234.71 430.394 166.421 430.394 101.856 412.342C93.7707 409.949 85.822 407.116 78.0463 403.856C44.6999 389.733 23.6151 370.169 23.6151 348.855C23.6151 327.542 44.6999 307.977 78.0463 293.855V342.766C78.2249 350.438 80.5497 357.908 84.7573 364.33C88.9648 370.753 94.8875 375.872 101.856 379.109C152.33 405.022 249.579 405.994 299.274 379.109C306.918 375.128 313.243 369.02 317.48 361.523C321.718 354.026 323.687 345.462 323.149 336.871V293.596C356.43 307.718 377.515 327.283 377.515 348.596C377.515 369.91 356.366 389.733 323.149 403.856Z" fill="#E9D6D6"/>
<path d="M285.326 126.844H284.936H283.769H283.379H281.952C266.966 124.317 235.76 120.366 222.331 126.52C207.669 133.516 189.438 165.389 183.405 176.402C191.32 172.904 207.929 165.583 224.537 158.133H225.056C232.841 154.7 240.561 151.202 247.438 148.027L250.098 139.282L251.785 139.8L249.124 148.287L262.1 156.061L261.191 157.486L248.216 149.647L228.753 158.393C234.617 160.319 240.269 162.837 245.622 165.907L244.843 167.398C239.021 163.834 232.671 161.21 226.029 159.624L184.638 177.957C197.613 180.354 233.035 185.796 247.438 178.929C261.84 172.062 281.562 138.245 287.077 128.01L285.326 126.844Z" fill="#E9D6D6"/>
<path d="M135.916 143.171C135.573 143.103 135.22 143.103 134.878 143.171C132.802 144.013 132.218 147.706 133.646 151.074C135.073 154.443 138.122 156.516 140.133 155.674C142.144 154.832 142.793 151.074 141.365 147.706C140.932 146.541 140.201 145.51 139.245 144.714C138.289 143.919 137.142 143.387 135.916 143.171V143.171Z" fill="#E9D6D6"/>
<path d="M180.81 140.188C180.81 140.188 180.81 139.54 180.81 139.217C180.842 138.677 180.842 138.136 180.81 137.597C180.842 137.231 180.842 136.862 180.81 136.496C180.81 136.042 180.81 135.589 180.81 135.2L180.421 133.904C180.297 133.547 180.145 133.201 179.967 132.868C179.822 132.404 179.649 131.95 179.447 131.507L178.994 130.665C178.795 130.192 178.556 129.737 178.28 129.305C178.168 129.045 178.014 128.804 177.826 128.592C177.561 128.094 177.257 127.617 176.917 127.167V126.714L175.75 125.224C173.314 122.331 170.298 119.979 166.897 118.32C163.495 116.661 159.784 115.731 156.001 115.591C152.218 115.451 148.448 116.103 144.933 117.505C141.418 118.907 138.236 121.029 135.591 123.733V123.733C133.762 125.669 132.212 127.849 130.985 130.212V130.212C130.566 130.964 130.197 131.743 129.882 132.544L129.103 134.747V135.395C129.103 136.042 129.104 136.625 128.65 137.273V138.569C128.614 139.043 128.614 139.52 128.65 139.994C128.586 140.9 128.586 141.809 128.65 142.715C128.47 146.396 129.04 150.074 130.326 153.528C131.613 156.981 133.589 160.138 136.134 162.807C138.678 165.475 141.74 167.599 145.132 169.051C148.523 170.502 152.175 171.251 155.865 171.251C159.555 171.251 163.207 170.502 166.599 169.051C169.991 167.599 173.052 165.475 175.597 162.807C178.142 160.138 180.117 156.981 181.404 153.528C182.69 150.074 183.261 146.396 183.081 142.715C180.94 141.873 180.875 141.031 180.81 140.188ZM141.885 160.53C140.928 160.968 139.887 161.189 138.835 161.178C136.548 160.977 134.368 160.126 132.551 158.725C130.734 157.324 129.358 155.433 128.585 153.274C127.697 152.104 127.089 150.747 126.806 149.306C126.523 147.866 126.573 146.38 126.952 144.962C127.33 143.543 128.027 142.23 128.991 141.121C129.955 140.013 131.159 139.138 132.512 138.564C133.865 137.99 135.331 137.732 136.8 137.809C138.268 137.886 139.699 138.296 140.984 139.009C142.269 139.722 143.375 140.718 144.217 141.921C145.059 143.125 145.614 144.504 145.842 145.954V145.954C147.278 148.373 147.701 151.259 147.021 153.987C146.341 156.715 144.612 159.066 142.209 160.53H141.885Z" fill="#E9D6D6"/>
</g>
<defs>
<clipPath id="clip0">
<rect width="401" height="447" fill="white"/>
</clipPath>
</defs>
</svg>
